icons/line/globe.svg

<svg width="24" height="24" viewBox="0 0 24 24" fill="none" xmlns="http://www.w3.org/2000/svg">
<path fill-rule="evenodd" clip-rule="evenodd" d="M7.8545 8.03451H5.0502C6.03902 6.30546 7.65333 4.9821 9.58373 4.37132C8.81618 5.51728 8.23977 6.7533 7.8545 8.03451ZM7.41268 10.0345H4.24299C4.08441 10.6625 4 11.3208 4 12C4 12.6792 4.08441 13.3375 4.24299 13.9655H7.41268C7.22521 12.6624 7.22521 11.3376 7.41268 10.0345ZM9.437 13.9655C9.2171 12.6651 9.2171 11.3349 9.437 10.0345H14.563C14.7829 11.3349 14.7829 12.6651 14.563 13.9655H9.437ZM7.8545 15.9655H5.05011C6.0385 17.6939 7.65295 19.0176 9.58367 19.6286C8.81615 18.4826 8.23976 17.2467 7.8545 15.9655ZM14.4163 19.6286C16.347 19.0176 17.9615 17.6939 18.9499 15.9655H16.1455C15.7602 17.2467 15.1838 18.4827 14.4163 19.6286ZM14.0401 15.9655C13.5855 17.2339 12.9054 18.4397 12 19.5207C11.0946 18.4397 10.4145 17.2339 9.9599 15.9655H14.0401ZM16.5873 13.9655H19.757C19.9156 13.3375 20 12.6792 20 12C20 11.3208 19.9156 10.6625 19.757 10.0345H16.5873C16.7748 11.3376 16.7748 12.6624 16.5873 13.9655ZM16.1455 8.03451H18.9499C17.9615 6.30608 16.347 4.98239 14.4163 4.37141C15.1838 5.51735 15.7602 6.75333 16.1455 8.03451ZM14.0401 8.03451H9.9599C10.4145 6.76606 11.0946 5.56027 12 4.47928C12.9054 5.56027 13.5855 6.76606 14.0401 8.03451ZM12 2C8.07218 2 4.67514 4.26468 3.04001 7.55497C2.85572 7.9258 2.69372 8.30978 2.5558 8.70512C2.19544 9.73814 2 10.8473 2 12C2 13.1527 2.19544 14.2619 2.5558 15.2949C3.91725 19.1976 7.63006 22 12 22C16.3699 22 20.0827 19.1976 21.4442 15.2949C21.8046 14.2619 22 13.1527 22 12C22 10.8473 21.8046 9.73814 21.4442 8.70512C20.0827 4.80243 16.3699 2 12 2Z" fill="currentColor"/>
</svg>

<svg width="24" height="24" fill="none" xmlns="http://www.w3.org/2000/svg"><path fill-rule="evenodd" clip-rule="evenodd" d="M7.854 8.035H5.05A8.022 8.022 0 019.584 4.37a13.633 13.633 0 00-1.73 3.664zm-.441 2h-3.17A8.018 8.018 0 004 12c0 .68.084 1.338.243 1.966h3.17a13.808 13.808 0 010-3.931zm2.024 3.93c-.22-1.3-.22-2.63 0-3.93h5.126c.22 1.3.22 2.63 0 3.93H9.437zm-1.582 2H5.05a8.023 8.023 0 004.534 3.664 13.633 13.633 0 01-1.73-3.664zm6.561 3.664a8.023 8.023 0 004.534-3.664h-2.805a13.634 13.634 0 01-1.729 3.664zm-.376-3.664A11.654 11.654 0 0112 19.521a11.654 11.654 0 01-2.04-3.556h4.08zm2.547-2h3.17A8.017 8.017 0 0020 12c0-.68-.084-1.338-.243-1.966h-3.17a13.806 13.806 0 010 3.931zm-.442-5.93h2.805a8.023 8.023 0 00-4.534-3.664 13.635 13.635 0 011.73 3.664zm-2.105 0H9.96A11.654 11.654 0 0112 4.479a11.654 11.654 0 012.04 3.556zM12 2a10 10 0 100 20c4.37 0 8.083-2.802 9.444-6.705A9.986 9.986 0 0022 12a9.986 9.986 0 00-.556-3.295C20.083 4.802 16.37 2 12 2z" fill="currentColor"/></svg>
